Adwaita++/status/16/dialog-question.svg

<svg id="svg4" height="16" width="16" xmlns="http://www.w3.org/2000/svg">
  <path id="path2" d="m7.9960938 0c-.503999 0-1.0119639.19875113-1.3964844.58203125l-6.02343752 6.02343755c-.76732258.7673225-.76732258 2.0275992 0 2.7949218l6.02343752 6.0234374c.7673226.767321 2.0275993.767321 2.7949218 0l6.0234378-6.0234374c.767322-.7673226.767322-2.0275993 0-2.7949218l-6.0234378-6.02343755c-.3701132-.36960519-.8734316-.57928547-1.3964843-.58203125zm-.1074219 2.5c.5723437 0 1.0667349.0786485 1.4882812.265625h.0019531c.3888252.1598146.7255198.3758156.9843748.6582031.250768.2735648.430018.5974546.525391.9492188.094072.3062911.146484.6106172.146484.9121093 0 .3776683-.074844.7373265-.230468 1.0605469v.0039063l-.001954.0058594c-.137237.2744749-.307163.5309582-.505859.7714843-.190943.2311417-.401991.4511894-.6308594.6601563-.1958776.1788448-.3713158.3669952-.53125.5605468l-.0039062.0039063-.0039063.0039063c-.1461738.1692543-.2712868.357011-.3730469.5683593l-.0019531.0039063v.0019531c-.0821954.1643913-.1269531.3546974-.1269531.59375v.1523437c0 .0276212.002213.0462734.0039062.0546876l.1191407.5996092h-2.0996094l-.0800781-.4042968c-.043848-.219243-.0664063-.4462453-.0664063-.6796874 0-.3527681.0631085-.6901811.1933594-.9980469l.0019531-.0058594.0039063-.0097656c.1281788-.2777209.2895709-.5338244.4824219-.7695313.1752942-.223136.3616658-.431088.5585937-.6191406.1787796-.1787796.3497205-.3573283.5097656-.5351562.1391014-.1545573.2462855-.3109298.3261719-.4707032l.0039062-.0078125.0039063-.0097656c.0711529-.1304475.1054687-.2606774.1054687-.4238281 0-.2806688-.0682928-.4352657-.2207031-.5820313l-.0039062-.0039062-.0039063-.0019531c-.1358212-.1358208-.3466251-.2285157-.7402344-.2285157-.5235597 0-1.0313309.130872-1.5488281.4101563l-.5117187.2773437-.703125-1.953125.3828125-.2011719c.3519616-.1863326.7396679-.3351854 1.1601562-.4453124h.0019531c.4403216-.1126407.9033579-.1679688 1.3847657-.1679688zm-.2207031 8.144531c.3937689 0 .7890979.150646 1.0507812.441407.2410476.267831.3769531.625909.3769531.986328 0 .360418-.1359051.718497-.3769531.986328-.2616833.290759-.6570123.441406-1.0507812.441406-.393769 0-.789098-.150647-1.0507813-.441406-.241048-.267831-.3789063-.62591-.3789063-.986328 0-.360419.1378588-.718497.3789063-.986328.2616833-.290761.6570123-.441407 1.0507813-.441407z" fill="#444"/>
</svg>

<?xml version="1.0" encoding="UTF-8" standalone="no"?>
<svg
   xmlns:dc="http://purl.org/dc/elements/1.1/"
   xmlns:cc="http://creativecommons.org/ns#"
   xmlns:rdf="http://www.w3.org/1999/02/22-rdf-syntax-ns#"
   xmlns:svg="http://www.w3.org/2000/svg"
   xmlns="http://www.w3.org/2000/svg"
   xmlns:sodipodi="http://sodipodi.sourceforge.net/DTD/sodipodi-0.dtd"
   xmlns:inkscape="http://www.inkscape.org/namespaces/inkscape"
   width="16"
   height="16"
   version="1.1"
   id="svg4"
   sodipodi:docname="dialog-question.svg"
   inkscape:version="0.92.4 (5da689c313, 2019-01-14)">
  <metadata
     id="metadata10">
    <rdf:RDF>
      <cc:Work
         rdf:about="">
        <dc:format>image/svg+xml</dc:format>
        <dc:type
           rdf:resource="http://purl.org/dc/dcmitype/StillImage" />
      </cc:Work>
    </rdf:RDF>
  </metadata>
  <defs
     id="defs8" />
  <sodipodi:namedview
     pagecolor="#ffffff"
     bordercolor="#666666"
     borderopacity="1"
     objecttolerance="10"
     gridtolerance="10"
     guidetolerance="10"
     inkscape:pageopacity="0"
     inkscape:pageshadow="2"
     inkscape:window-width="1706"
     inkscape:window-height="956"
     id="namedview6"
     showgrid="false"
     inkscape:zoom="14.75"
     inkscape:cx="-4.8813559"
     inkscape:cy="8"
     inkscape:window-x="0"
     inkscape:window-y="27"
     inkscape:window-maximized="0"
     inkscape:current-layer="svg4" />
  <path
     style="color:#bebebe;font-style:normal;font-variant:normal;font-weight:normal;font-stretch:normal;font-size:medium;line-height:normal;font-family:sans-serif;font-variant-ligatures:normal;font-variant-position:normal;font-variant-caps:normal;font-variant-numeric:normal;font-variant-alternates:normal;font-feature-settings:normal;text-indent:0;text-align:start;text-decoration:none;text-decoration-line:none;text-decoration-style:solid;text-decoration-color:#000000;letter-spacing:normal;word-spacing:normal;text-transform:none;writing-mode:lr-tb;direction:ltr;text-orientation:mixed;dominant-baseline:auto;baseline-shift:baseline;text-anchor:start;white-space:normal;shape-padding:0;clip-rule:nonzero;display:inline;overflow:visible;visibility:visible;opacity:1;isolation:auto;mix-blend-mode:normal;color-interpolation:sRGB;color-interpolation-filters:linearRGB;solid-color:#000000;solid-opacity:1;vector-effect:none;fill-opacity:1;fill-rule:nonzero;stroke:none;stroke-width:0.94499797;stroke-linecap:butt;stroke-linejoin:miter;stroke-miterlimit:4;stroke-dasharray:none;stroke-dashoffset:0;stroke-opacity:1;marker:none;color-rendering:auto;image-rendering:auto;shape-rendering:auto;text-rendering:auto;enable-background:accumulate;fill:#444444"
     d="M 7.9960938 0 C 7.4920948 0 6.9841299 0.19875113 6.5996094 0.58203125 L 0.57617188 6.6054688 C -0.1911507 7.3727913 -0.1911507 8.633068 0.57617188 9.4003906 L 6.5996094 15.423828 C 7.366932 16.191149 8.6272087 16.191149 9.3945312 15.423828 L 15.417969 9.4003906 C 16.185291 8.633068 16.185291 7.3727913 15.417969 6.6054688 L 9.3945312 0.58203125 C 9.024418 0.21242606 8.5210996 0.00274578 7.9980469 0 L 7.9960938 0 z M 7.8886719 2.5 C 8.4610156 2.5 8.9554068 2.5786485 9.3769531 2.765625 C 9.3769531 2.765625 9.3789062 2.765625 9.3789062 2.765625 C 9.7677314 2.9254396 10.104426 3.1414406 10.363281 3.4238281 C 10.614049 3.6973929 10.793299 4.0212827 10.888672 4.3730469 C 10.982744 4.679338 11.035156 4.9836641 11.035156 5.2851562 C 11.035156 5.6628245 10.960312 6.0224827 10.804688 6.3457031 L 10.804688 6.3496094 L 10.802734 6.3554688 C 10.665497 6.6299437 10.495571 6.886427 10.296875 7.1269531 C 10.105932 7.3580948 9.894884 7.5781425 9.6660156 7.7871094 C 9.470138 7.9659542 9.2946998 8.1541046 9.1347656 8.3476562 L 9.1308594 8.3515625 L 9.1269531 8.3554688 C 8.9807793 8.5247231 8.8556663 8.7124798 8.7539062 8.9238281 L 8.7519531 8.9277344 L 8.7519531 8.9296875 C 8.6697577 9.0940788 8.625 9.2843849 8.625 9.5234375 L 8.625 9.6757812 C 8.625 9.7034024 8.627213 9.7220546 8.6289062 9.7304688 L 8.7480469 10.330078 L 6.6484375 10.330078 L 6.5683594 9.9257812 C 6.5245114 9.7065382 6.5019531 9.4795359 6.5019531 9.2460938 C 6.5019531 8.8933257 6.5650616 8.5559127 6.6953125 8.2480469 L 6.6972656 8.2421875 L 6.7011719 8.2324219 C 6.8293507 7.954701 6.9907428 7.6985975 7.1835938 7.4628906 C 7.358888 7.2397546 7.5452596 7.0318026 7.7421875 6.84375 C 7.9209671 6.6649704 8.091908 6.4864217 8.2519531 6.3085938 C 8.3910545 6.1540365 8.4982386 5.997664 8.578125 5.8378906 L 8.5820312 5.8300781 L 8.5859375 5.8203125 C 8.6570904 5.689865 8.6914062 5.5596351 8.6914062 5.3964844 C 8.6914062 5.1158156 8.6231134 4.9612187 8.4707031 4.8144531 L 8.4667969 4.8105469 L 8.4628906 4.8085938 C 8.3270694 4.672773 8.1162655 4.5800781 7.7226562 4.5800781 C 7.1990965 4.5800781 6.6913253 4.7109501 6.1738281 4.9902344 L 5.6621094 5.2675781 L 4.9589844 3.3144531 L 5.3417969 3.1132812 C 5.6937585 2.9269486 6.0814648 2.7780958 6.5019531 2.6679688 L 6.5039062 2.6679688 C 6.9442278 2.5553281 7.4072641 2.5 7.8886719 2.5 z M 7.6679688 10.644531 C 8.0617377 10.644531 8.4570667 10.795177 8.71875 11.085938 C 8.9597976 11.353769 9.0957031 11.711847 9.0957031 12.072266 C 9.0957031 12.432684 8.959798 12.790763 8.71875 13.058594 C 8.4570667 13.349353 8.0617377 13.5 7.6679688 13.5 C 7.2741998 13.5 6.8788708 13.349353 6.6171875 13.058594 C 6.3761395 12.790763 6.2382812 12.432684 6.2382812 12.072266 C 6.2382812 11.711847 6.37614 11.353769 6.6171875 11.085938 C 6.8788708 10.795177 7.2741998 10.644531 7.6679688 10.644531 z "
     id="path2" />
  <g
     aria-label="?"
     style="font-style:normal;font-weight:normal;font-size:40px;line-height:1.25;font-family:sans-serif;letter-spacing:0px;word-spacing:0px;fill:#444444;fill-opacity:1;stroke:#000000;stroke-width:0.96266663;stroke-miterlimit:4;stroke-dasharray:none;stroke-opacity:1"
     id="text827"
     transform="matrix(1.0387812,0,0,1.0387812,10.225761,-1.8988548)" />
</svg>
